svg/free/cil-badge.svg

<svg xmlns="http://www.w3.org/2000/svg" viewBox="0 0 512 512">
  <polygon fill="currentColor" points="328.375 384 332.073 458.999 256.211 406.28 179.924 459.049 183.625 384 151.586 384 146.064 496 182.756 496 256.169 445.22 329.242 496 365.936 496 360.414 384 328.375 384" class="ci-primary"/>
  <path fill="currentColor" d="M415.4092,154.9141,413.2148,106.86l-40.519-25.9278L346.7681,40.4141l-48.0547-2.1953L256,16.0928l-42.7134,22.126-48.0547,2.1953L139.3042,80.9326,98.7852,106.86l-2.1944,48.0537L74.4644,197.6279l22.1264,42.7149,2.1948,48.0537,40.5186,25.9267,25.9277,40.52,48.0547,2.1953L256,379.1641l42.7134-22.126,48.0547-2.1953,25.9277-40.52,40.5186-25.9267,2.1948-48.0537,22.1264-42.7149Zm-31.6465,76.9492-1.7588,38.5137-32.4746,20.78-20.7808,32.4746-38.5146,1.76L256,343.125l-34.2339-17.7334-38.5146-1.76-20.7808-32.4746-32.4746-20.78-1.7588-38.5137-17.7344-34.2354,17.7344-34.2334,1.7588-38.5146,32.4746-20.7813L183.2515,71.625l38.5146-1.76L256,52.1318l34.2339,17.7334,38.5146,1.76,20.7808,32.4736L382.0039,124.88l1.7588,38.5146,17.7344,34.2334Z" class="ci-primary"/>
</svg>

<svg xmlns="http://www.w3.org/2000/svg" viewBox="0 0 512 512">
  <polygon fill="var(--ci-primary-color, currentColor)" points="328.375 384 332.073 458.999 256.211 406.28 179.924 459.049 183.625 384 151.586 384 146.064 496 182.756 496 256.169 445.22 329.242 496 365.936 496 360.414 384 328.375 384" class="ci-primary"/>
  <path fill="var(--ci-primary-color, currentColor)" d="M415.409,154.914l-2.194-48.054L372.7,80.933,346.768,40.414l-48.055-2.2L256,16.093,213.287,38.219l-48.055,2.2L139.3,80.933,98.785,106.86l-2.194,48.054L74.464,197.628l22.127,42.715,2.2,48.053L139.3,314.323l25.928,40.52,48.055,2.195L256,379.164l42.713-22.126,48.055-2.195,25.928-40.52L413.214,288.4l2.195-48.053,22.127-42.715Zm-31.646,76.949L382,270.377l-32.475,20.78-20.78,32.475-38.515,1.76L256,343.125l-34.234-17.733-38.515-1.76-20.78-32.475L130,270.377l-1.759-38.514L110.5,197.628,128.237,163.4,130,124.88,162.471,104.1l20.78-32.474,38.515-1.76L256,52.132l34.234,17.733,38.515,1.76,20.78,32.474L382,124.88l1.759,38.515L401.5,197.628Z" class="ci-primary"/>
</svg>
